X:286
T:Lord Kelly’s Reel. RH.286
R:reel
S:Rev.R.Harrison’s MS,c1815,Cumbria
O:England
A:Temple Sowerby,Cumbria
Z:vmp.Simon Wilson. Review PJH, 2008.
M:C
L:1/8
Q:1/4=140
K:Em
D|B,EGE BEGE|D>EFd DE (G/F/E/D/)|\
B,EEG FAGB|Ad (B/A/G/F/) GEE:|!
|:e|geBe Eeeg|fdAd Dd d(e/f/)|\
geBe dBAG|Fd B/A/G/F/ GEEe|!
geBe EGeg|fdAd DFdf|\
gefd eBAG|Fd B/A/G/F/ GEE:|

